svg/Pictogram/pictograms-aem-0105-keep_safe_distance_from_raised_loader_lift_arm_or_bucket.svg

<?xml version="1.0" encoding="ISO-8859-1" standalone="yes"?>
<svg height="305.241" width="305.241">
  <metadata>
    <rdf:RDF xmlns:cc="http://web.resource.org/cc/" xmlns:dc="http://purl.org/dc/elements/1.1/" xmlns:rdf="http://www.w3.org/1999/02/22-rdf-syntax-ns#">
      <cc:Work rdf:about="">
        <dc:title></dc:title>
        <dc:description></dc:description>
        <dc:subject>
          <rdf:Bag>
            <rdf:li></rdf:li>
          </rdf:Bag>
        </dc:subject>
        <dc:publisher>
          <cc:Agent rdf:about="http://www.unece.org/trans/danger/publi/ghs/pictograms.html">
            <dc:title>Source: UNECE GHS of Classification and Labeling of Chemicals, Source: AEM Pictorial Database, Source: AEM Pictorial Database, Source: AEM Pictorial Database, Source: AEM Pictorial Database</dc:title>
          </cc:Agent>
        </dc:publisher>
        <dc:creator>
          <cc:Agent>
            <dc:title></dc:title>
          </cc:Agent>
        </dc:creator>
        <dc:rights>
          <cc:Agent>
            <dc:title></dc:title>
          </cc:Agent>
        </dc:rights>
        <dc:date></dc:date>
        <dc:format>image/svg+xml</dc:format>
        <dc:type rdf:resource="http://purl.org/dc/dcmitype/StillImage"/>
        <cc:license rdf:resource="http://en.wikipedia.org/wiki/Public_domain"/>
        <dc:language>en</dc:language>
      </cc:Work>
    </rdf:RDF>
  </metadata>
  <defs><marker id="ArrowEnd" markerHeight="3" markerUnits="strokeWidth" markerWidth="4" orient="auto" refX="0" refY="5" viewBox="0 0 10 10"><path d="M 0 0 L 10 5 L 0 10 z"/></marker><marker id="ArrowStart" markerHeight="3" markerUnits="strokeWidth" markerWidth="4" orient="auto" refX="10" refY="5" viewBox="0 0 10 10"><path d="M 10 0 L 0 5 L 10 10 z"/></marker> </defs>
  <g id="g2958" transform="matrix(1.3532768,0,0,1.3532781,-53.207834,-52.192858)">
    <path d="M 98.1438 154.936C 103.253 154.936 107.405 159.081 107.405 164.198L 107.405 202.695C 107.405 204.925 105.6 206.726 103.378 206.726C 101.156 206.726 99.3431 204.925 99.3431 202.695L 99.3743 170.14C 99.3743 168.811 98.3001 167.729 96.972 167.729C 95.6399 167.729 94.554 168.811 94.554 170.14L 94.554 251.503C 94.554 254.566 92.0696 257.031 89.0266 257.031C 85.9798 257.031 83.511 254.566 83.511 251.503L 83.5423 210.749C 83.5423 209.324 82.386 208.163 80.9563 208.163C 79.5345 208.163 78.3743 209.324 78.3743 210.749L 78.4016 251.503C 78.4016 254.566 75.9368 257.031 72.886 257.031C 69.8274 257.031 67.3548 254.566 67.3548 251.503L 67.3509 170.14C 67.3509 168.811 66.2766 167.729 64.9485 167.729C 63.6165 167.729 62.5345 168.811 62.5345 170.14L 62.5657 202.695C 62.5657 204.925 60.7649 206.726 58.5384 206.726C 56.3118 206.726 54.5149 204.925 54.5149 202.695L 54.5149 164.198C 54.5149 159.081 58.6556 154.936 63.7766 154.936L 98.1438 154.936" style="stroke:none; fill-rule:evenodd; fill:#000000"/>
    <path d="M 80.9563 152.136C 86.6907 152.136 91.347 147.479 91.347 141.749C 91.347 136.007 86.6907 131.354 80.9563 131.354C 75.222 131.354 70.5735 136.007 70.5735 141.749C 70.5735 147.479 75.222 152.136 80.9563 152.136" style="stroke:none; fill-rule:evenodd; fill:#000000"/>
    <path d="M 191.913 87.8084C 194.268 86.4364 195.069 83.4174 193.69 81.0544C 192.311 78.6944 189.292 77.8934 186.936 79.2724C 184.577 80.6474 183.788 83.6674 185.147 86.0304C 186.542 88.3934 189.554 89.1864 191.913 87.8084" style="stroke:none; fill-rule:evenodd; fill:#000000"/>
    <path d="M 200.507 96.0974L 200.722 95.8974C 201.722 95.0074 202.85 93.6284 203.8 91.8434L 252.475 119.675L 252.436 113.995L 205.499 87.2104C 206.362 83.2614 206.077 78.3314 203.179 72.7924C 203.175 72.7924 187.292 42.4874 187.292 42.4874L 185.358 43.5034C 185.358 43.5034 133.358 70.7534 124.702 75.2884L 118.565 73.3314L 111.081 77.1904L 123.046 81.1634L 123.284 80.4444C 141.729 86.6594 169.37 95.9324 178.776 98.8664C 187.393 101.554 192.772 100.679 196.136 99.1474L 252.335 131.218L 252.296 125.53L 200.507 96.0974zM 197.819 92.6404C 197.823 92.6404 197.429 93.0034 197.429 93.0034C 195.729 94.6044 191.757 98.3474 180.073 94.7024C 171.448 92.0114 147.374 83.9524 129.225 77.8434C 136.671 73.9404 182.089 50.1404 185.452 48.3784C 187.21 51.7334 199.311 74.8154 199.311 74.8154C 200.979 77.9994 201.573 80.8154 201.573 83.2144C 201.573 89.1944 197.874 92.5934 197.819 92.6404" style="stroke:none; fill-rule:evenodd; fill:#000000"/>
    <path d="M 157.456 117.667L 146.284 128.835L 165.257 127.538L 149.132 143.643L 133.046 159.749L 134.343 140.78L 123.179 151.944L 121.956 178.241L 148.12 177.015L 159.35 165.788L 140.378 167.081L 156.432 151.026L 172.589 134.87L 171.292 153.843L 182.526 142.608L 183.753 116.444L 157.456 117.667" style="stroke:none; fill-rule:evenodd; fill:#000000"/>
    <path d="M 29.6204 266.62L 2.62042 266.62" style="stroke:#000000; stroke-width:0.5; fill:none"/>
    <path d="M 38.6204 275.62L 38.6204 302.62" style="stroke:#000000; stroke-width:0.5; fill:none"/>
    <path d="M 29.6204 38.6204L 2.62042 38.6204" style="stroke:#000000; stroke-width:0.5; fill:none"/>
    <path d="M 38.6204 29.6204L 38.6204 2.62042" style="stroke:#000000; stroke-width:0.5; fill:none"/>
    <path d="M 275.62 38.6204L 302.62 38.6204" style="stroke:#000000; stroke-width:0.5; fill:none"/>
    <path d="M 266.62 29.6204L 266.62 2.62042" style="stroke:#000000; stroke-width:0.5; fill:none"/>
    <path d="M 275.62 266.62L 302.62 266.62" style="stroke:#000000; stroke-width:0.5; fill:none"/>
    <path d="M 266.62 275.62L 266.62 302.62" style="stroke:#000000; stroke-width:0.5; fill:none"/>
  </g>
</svg>

<svg viewBox="0 0 305.24 305.24"><g transform="matrix(1.35328 0 0 1.35328-53.21-52.19)" fill-rule="evenodd"><path d="m98.14 154.94c5.109 0 9.261 4.145 9.261 9.262v38.497c0 2.23-1.805 4.03-4.03 4.03-2.222 0-4.03-1.801-4.03-4.03l.031-32.555c0-1.329-1.074-2.411-2.402-2.411-1.332 0-2.418 1.082-2.418 2.411v81.36c0 3.063-2.484 5.528-5.527 5.528-3.047 0-5.516-2.465-5.516-5.528l.031-40.754c0-1.425-1.156-2.586-2.586-2.586-1.422 0-2.582 1.161-2.582 2.586l.027 40.754c0 3.063-2.465 5.528-5.516 5.528-3.059 0-5.531-2.465-5.531-5.528l-.004-81.36c0-1.329-1.074-2.411-2.402-2.411-1.332 0-2.414 1.082-2.414 2.411l.031 32.555c0 2.23-1.801 4.03-4.03 4.03-2.227 0-4.02-1.801-4.02-4.03v-38.497c0-5.117 4.141-9.262 9.262-9.262h34.37"/><path d="m80.956 152.14c5.734 0 10.391-4.657 10.391-10.387 0-5.742-4.656-10.395-10.391-10.395-5.734 0-10.383 4.653-10.383 10.395 0 5.73 4.648 10.387 10.383 10.387"/><path d="m191.91 87.81c2.355-1.372 3.156-4.391 1.777-6.754-1.379-2.36-4.398-3.161-6.754-1.782-2.359 1.375-3.148 4.395-1.789 6.758 1.395 2.363 4.407 3.156 6.766 1.778"/><path d="m200.51 96.1l.215-.2c1-.89 2.128-2.269 3.078-4.054l48.675 27.832-.039-5.68-46.937-26.785c.863-3.949.578-8.879-2.32-14.418-.004 0-15.887-30.3-15.887-30.3l-1.934 1.016c0 0-52 27.25-60.66 31.785l-6.137-1.957-7.484 3.859 11.965 3.973.238-.719c18.445 6.215 46.09 15.488 55.49 18.422 8.617 2.688 13.996 1.813 17.36.281l56.2 32.07-.039-5.688-51.789-29.433m-2.688-3.457c.004 0-.39.363-.39.363-1.7 1.601-5.672 5.344-17.356 1.699-8.625-2.691-32.699-10.75-50.848-16.859 7.446-3.903 52.864-27.703 56.23-29.465 1.758 3.355 13.859 26.437 13.859 26.437 1.668 3.184 2.262 6 2.262 8.399 0 5.98-3.699 9.379-3.754 9.426"/><path d="m157.46 117.67l-11.172 11.168 18.973-1.297-16.12 16.11-16.09 16.11 1.297-18.969-11.164 11.164-1.223 26.297 26.16-1.226 11.23-11.227-18.972 1.293 16.05-16.05 16.16-16.16-1.297 18.973 11.234-11.235 1.227-26.16-26.297 1.223"/></g></svg>
